symbols/web/swap_horizontal_circle/materialsymbolsrounded/swap_horizontal_circle_wght700fill1_40px.svg

<svg xmlns="http://www.w3.org/2000/svg" height="40" width="40"><path d="m25.792 22.167 4.583-4.625q.417-.375.417-.959 0-.583-.417-.958l-4.625-4.667q-.375-.375-.917-.27-.541.104-1.041.27-.375.417-.396 1.021-.021.604.396.979L26 15.208h-6.333q-.542 0-.938.396-.396.396-.396.979 0 .584.396.979.396.396.979.396H26l-2.25 2.25q-.375.417-.375.98 0 .562.417.979.375.416.979.416t1.021-.416ZM14.25 29.25q.417.417.979.417.563 0 .979-.459.375-.375.396-.958.021-.583-.396-1L14 25.042h6.333q.542 0 .938-.396.396-.396.396-1.021 0-.583-.396-.979t-.979-.396H14L16.25 20q.375-.417.375-.979 0-.563-.417-.979-.375-.375-.979-.375t-.979.375l-4.625 4.625q-.417.416-.417.979 0 .562.417.979ZM20 37.833q-3.708 0-6.958-1.395-3.25-1.396-5.667-3.813-2.417-2.417-3.813-5.667Q2.167 23.708 2.167 20t1.416-6.958Q5 9.792 7.396 7.396t5.646-3.834Q16.292 2.125 20 2.125t6.958 1.437Q30.208 5 32.604 7.396t3.834 5.646q1.437 3.25 1.437 6.958t-1.437 6.958q-1.438 3.25-3.834 5.646t-5.646 3.813q-3.25 1.416-6.958 1.416Z"/></svg>

<svg xmlns="http://www.w3.org/2000/svg" height="40" width="40"><path d="M25.792 22.167 30.375 17.542Q30.792 17.167 30.792 16.583Q30.792 16 30.375 15.625L25.75 10.958Q25.375 10.583 24.833 10.688Q24.292 10.792 23.792 10.958Q23.417 11.375 23.396 11.979Q23.375 12.583 23.792 12.958L26 15.208H19.667Q19.125 15.208 18.729 15.604Q18.333 16 18.333 16.583Q18.333 17.167 18.729 17.562Q19.125 17.958 19.708 17.958H26L23.75 20.208Q23.375 20.625 23.375 21.188Q23.375 21.75 23.792 22.167Q24.167 22.583 24.771 22.583Q25.375 22.583 25.792 22.167ZM14.25 29.25Q14.667 29.667 15.229 29.667Q15.792 29.667 16.208 29.208Q16.583 28.833 16.604 28.25Q16.625 27.667 16.208 27.25L14 25.042H20.333Q20.875 25.042 21.271 24.646Q21.667 24.25 21.667 23.625Q21.667 23.042 21.271 22.646Q20.875 22.25 20.292 22.25H14L16.25 20Q16.625 19.583 16.625 19.021Q16.625 18.458 16.208 18.042Q15.833 17.667 15.229 17.667Q14.625 17.667 14.25 18.042L9.625 22.667Q9.208 23.083 9.208 23.646Q9.208 24.208 9.625 24.625ZM20 37.833Q16.292 37.833 13.042 36.438Q9.792 35.042 7.375 32.625Q4.958 30.208 3.562 26.958Q2.167 23.708 2.167 20Q2.167 16.292 3.583 13.042Q5 9.792 7.396 7.396Q9.792 5 13.042 3.562Q16.292 2.125 20 2.125Q23.708 2.125 26.958 3.562Q30.208 5 32.604 7.396Q35 9.792 36.438 13.042Q37.875 16.292 37.875 20Q37.875 23.708 36.438 26.958Q35 30.208 32.604 32.604Q30.208 35 26.958 36.417Q23.708 37.833 20 37.833Z"/></svg>
